client/src/assets/home_icon.svg

<svg width="20" height="20" viewBox="0 0 20 20" fill="none" xmlns="http://www.w3.org/2000/svg">
<path d="M7.08398 13.168C7.82314 13.7158 8.72209 14.0372 9.6916 14.0372C10.6611 14.0372 11.56 13.7158 12.2992 13.168" stroke="#1C274C" stroke-width="2" stroke-linecap="round"/>
<path d="M18.3841 9.86928V11.1914C18.3841 14.582 18.3841 16.2774 17.3657 17.3307C16.3475 18.3841 14.7084 18.3841 11.4305 18.3841H7.95364C4.67566 18.3841 3.03668 18.3841 2.01833 17.3307C1 16.2774 1 14.582 1 11.1914V9.86928C1 7.88019 1 6.88563 1.45129 6.06116C1.90258 5.23669 2.72707 4.72499 4.37602 3.7016L6.11443 2.62269C7.8575 1.5409 8.72906 1 9.69205 1C10.655 1 11.5266 1.5409 13.2697 2.62269L15.0081 3.70159C16.6571 4.72499 17.4815 5.23669 17.9328 6.06116" stroke="#1C274C" stroke-width="2" stroke-linecap="round"/>
</svg>

<?xml version="1.0" encoding="UTF-8"?>
<svg id="Layer_1" xmlns="http://www.w3.org/2000/svg" width="20" height="20" version="1.1" viewBox="0 0 20 20">
  <!-- Generator: Adobe Illustrator 29.8.1, SVG Export Plug-In . SVG Version: 2.1.1 Build 2)  -->
  <defs>
    <style>
      .st0 {
        fill: none;
        stroke: #2a2627;
        stroke-linecap: round;
        stroke-width: 2px;
      }
    </style>
  </defs>
  <path class="st0" d="M7.08,13.17c.74.55,1.64.87,2.61.87s1.87-.32,2.61-.87"/>
  <path class="st0" d="M18.38,9.87v1.32c0,3.39,0,5.09-1.02,6.14-1.02,1.05-2.66,1.05-5.94,1.05h-3.48c-3.28,0-4.92,0-5.94-1.05-1.02-1.05-1.02-2.75-1.02-6.14v-1.32c0-1.99,0-2.98.45-3.81s1.28-1.34,2.92-2.36l1.74-1.08c1.74-1.08,2.61-1.62,3.58-1.62s1.83.54,3.58,1.62l1.74,1.08c1.65,1.02,2.47,1.54,2.92,2.36"/>
</svg>
